build/images/last-section/Vectorls-icon-17.svg

<svg width="67" height="80" viewBox="0 0 67 80" fill="none" xmlns="http://www.w3.org/2000/svg">
<path d="M2.74039 66.1599H64.2007M59.9069 33.93L26.9189 33.93M38.8162 41.04H60.4477M18.3907 22.5049V16.374C18.3893 14.5634 18.9575 12.7992 20.0131 11.3368C24.0149 5.81843 34.9496 -5.73795 47.3119 11.3368C48.3842 12.8133 48.9639 14.5967 48.9668 16.4286V22.483M59.1119 78.3671H7.82914C6.99684 78.3643 6.17472 78.1821 5.41752 77.8326C4.66032 77.4832 3.98549 76.9746 3.43796 76.3406C2.89042 75.7066 2.48276 74.9619 2.24218 74.1561C2.00161 73.3503 1.93362 72.5019 2.04275 71.6674L7.77507 27.6514C7.96014 26.2261 8.65142 24.9175 9.72004 23.9696C10.7887 23.0216 12.1617 22.4991 13.5831 22.4994H53.4066C54.8274 22.4993 56.1998 23.022 57.2675 23.97C58.3352 24.918 59.0254 26.2266 59.2092 27.6514L64.9416 71.6674C65.0512 72.5055 64.9821 73.3577 64.739 74.1666C64.4959 74.9755 64.0844 75.7224 63.5322 76.3571C62.9799 76.9917 62.2997 77.4995 61.5373 77.8462C60.7749 78.1929 59.9479 78.3705 59.1119 78.3671Z" stroke="#A15CE6" stroke-width="3" stroke-linecap="round" stroke-linejoin="round"/>
</svg>

<svg width="67" height="80" fill="none" xmlns="http://www.w3.org/2000/svg"><path d="M2.74 66.16H64.2m-4.293-32.23H26.919m11.897 7.11h21.632M18.39 22.505v-6.131a8.597 8.597 0 0 1 1.622-5.037c4.002-5.519 14.937-17.075 27.299 0a8.69 8.69 0 0 1 1.655 5.092v6.054m10.145 55.884H7.829a5.8 5.8 0 0 1-2.411-.534 5.86 5.86 0 0 1-1.98-1.492 5.943 5.943 0 0 1-1.196-2.185 5.988 5.988 0 0 1-.2-2.489l5.733-44.016A5.943 5.943 0 0 1 9.72 23.97a5.818 5.818 0 0 1 3.863-1.47h39.824c1.42 0 2.793.522 3.86 1.47a5.938 5.938 0 0 1 1.942 3.681l5.733 44.016c.11.838.04 1.69-.203 2.5a5.943 5.943 0 0 1-1.207 2.19 5.863 5.863 0 0 1-1.995 1.49 5.801 5.801 0 0 1-2.425.52z" stroke="#A15CE6" stroke-width="3" stroke-linecap="round" stroke-linejoin="round"/></svg>
